src/qt/btcu/res/img/ic-transaction-stake-delegated.svg

<svg width="24" height="24" viewBox="0 0 24 24" fill="none" xmlns="http://www.w3.org/2000/svg">
<path d="M22.1999 5.80002H18.8999C18.9999 5.30002 18.9999 4.80002 18.7999 4.30002C18.4999 3.60002 17.9999 3.00002 17.1999 2.60002C16.3999 2.20002 15.4999 2.10002 14.6999 2.40002C13.8999 2.70002 13.1999 3.20002 12.7999 3.90002L12.0999 5.00002L11.3999 3.80002C10.9999 3.20002 10.2999 2.70002 9.4999 2.40002C8.5999 2.10002 7.6999 2.20002 6.9999 2.60002C5.5999 3.20002 4.9999 4.50002 5.1999 5.80002H1.8999V10.2H3.7999L3.8999 22H20.1999L20.0999 10.2H22.1999V5.80002ZM14.4999 4.70002C14.6999 4.40002 14.9999 4.20002 15.2999 4.10002C15.5999 4.00002 15.9999 4.10002 16.2999 4.20002C16.5999 4.40002 16.8999 4.60002 16.9999 4.90002C16.9999 5.20002 16.9999 5.50002 16.8999 5.80002H13.9999L14.4999 4.70002ZM7.8999 4.20002C8.0999 4.10002 8.1999 4.10002 8.3999 4.10002C8.4999 4.10002 8.6999 4.10002 8.7999 4.20002C9.0999 4.30002 9.3999 4.50002 9.5999 4.80002L10.1999 5.80002H7.2999C6.9999 5.20002 7.2999 4.50002 7.8999 4.20002ZM18.1999 19.7H5.8999V10.1H18.1999V19.7V19.7ZM20.5999 8.80002H3.5999V7.10002H20.5999V8.80002Z" fill="#262642"/>
<path d="M15.5999 16.4999L14.4999 15.8999L15.4999 15.6999C15.6999 15.6999 15.7999 15.4999 15.6999 15.2999C15.6999 15.0999 15.4999 14.9999 15.2999 15.0999L13.6999 15.4999L12.5999 14.8999L13.6999 14.2999L15.2999 14.6999H15.3999C15.4999 14.6999 15.6999 14.5999 15.6999 14.4999C15.6999 14.2999 15.5999 14.1999 15.4999 14.0999L14.4999 13.8999L15.5999 13.2999C15.7999 13.1999 15.7999 12.9999 15.6999 12.8999C15.5999 12.7999 15.3999 12.6999 15.2999 12.7999L14.1999 13.3999L14.4999 12.4999C14.4999 12.2999 14.3999 12.1999 14.2999 12.0999C14.0999 12.0999 13.8999 12.1999 13.8999 12.2999L13.4999 13.7999L12.3999 14.3999V13.1999L13.5999 12.0999C13.6999 11.9999 13.6999 11.7999 13.5999 11.6999C13.4999 11.5999 13.2999 11.5999 13.0999 11.6999L12.3999 12.3999V11.1999C12.3999 10.9999 12.2999 10.8999 12.0999 10.8999C11.8999 10.8999 11.7999 10.9999 11.7999 11.1999V12.3999L10.9999 11.5999C10.8999 11.4999 10.6999 11.4999 10.4999 11.5999C10.3999 11.6999 10.3999 11.8999 10.4999 11.9999L11.6999 13.0999V14.2999L10.5999 13.6999L10.1999 12.1999C10.1999 11.9999 9.99991 11.8999 9.79991 11.9999C9.59991 11.9999 9.49991 12.1999 9.59991 12.3999L9.89991 13.2999L8.79991 12.6999C8.59991 12.5999 8.39991 12.6999 8.39991 12.7999C8.29991 12.8999 8.39991 13.0999 8.49991 13.1999L9.59991 13.7999L8.59991 13.9999C8.39991 13.9999 8.29991 14.1999 8.39991 14.3999C8.39991 14.4999 8.59991 14.5999 8.69991 14.5999H8.79991L10.3999 14.1999L11.4999 14.7999L10.3999 15.3999L8.79991 14.9999C8.59991 14.9999 8.39991 15.0999 8.39991 15.1999C8.39991 15.3999 8.49991 15.4999 8.59991 15.5999L9.59991 15.7999L8.49991 16.3999C8.29991 16.4999 8.29991 16.6999 8.39991 16.7999C8.49991 16.8999 8.59991 16.9999 8.69991 16.9999C8.79991 16.9999 8.79991 16.9999 8.89991 16.9999L9.89991 16.3999L9.59991 17.3999C9.59991 17.5999 9.69991 17.6999 9.79991 17.7999H9.89991C9.99991 17.7999 10.1999 17.6999 10.1999 17.5999L10.5999 16.0999L11.6999 15.4999V16.6999L10.4999 17.7999C10.3999 17.8999 10.3999 18.0999 10.4999 18.1999C10.5999 18.2999 10.7999 18.2999 10.9999 18.1999L11.6999 17.4999V18.6999C11.6999 18.8999 11.7999 18.9999 11.9999 18.9999C12.1999 18.9999 12.2999 18.8999 12.2999 18.6999V17.4999L12.9999 18.1999C13.0999 18.2999 13.0999 18.2999 13.1999 18.2999C13.2999 18.2999 13.3999 18.2999 13.3999 18.1999C13.4999 18.0999 13.4999 17.8999 13.3999 17.7999L12.1999 16.6999V15.3999L13.2999 15.9999L13.6999 17.4999C13.6999 17.5999 13.8999 17.6999 13.9999 17.6999H14.0999C14.2999 17.6999 14.3999 17.4999 14.2999 17.2999V16.3999L15.3999 16.9999C15.4999 16.9999 15.4999 16.9999 15.5999 16.9999C15.6999 16.9999 15.7999 16.8999 15.8999 16.7999C15.8999 16.7999 15.7999 16.5999 15.5999 16.4999Z" fill="#262642"/>
</svg>

<?xml version="1.0" encoding="utf-8"?>
<!-- Generator: Adobe Illustrator 23.1.1, SVG Export Plug-In . SVG Version: 6.00 Build 0)  -->
<svg version="1.1" id="ic-transaction-staked" xmlns="http://www.w3.org/2000/svg" xmlns:xlink="http://www.w3.org/1999/xlink"
	 x="0px" y="0px" viewBox="0 0 24 24" style="enable-background:new 0 0 24 24;" xml:space="preserve">
<style type="text/css">
	.st0{fill:none;}
	.st1{fill:none;}
	.st2{fill:#707070;}
</style>
	<g>
	<path class="st0" d="M18.3,13L18.3,13L18.3,13z"/>
</g>
	<path class="st1" d="M10.2,5.8l-0.6-1C9.5,4.5,9.2,4.2,8.9,4.1c-0.1,0-0.3-0.1-0.4-0.1c-0.2,0-0.4,0-0.5,0.1C7.3,4.5,7,5.2,7.3,5.8
	H10.2z"/>
	<path class="st1" d="M16.9,4.9c-0.1-0.3-0.4-0.6-0.7-0.7C16,4.1,15.6,4,15.3,4.1c-0.3,0.1-0.6,0.3-0.8,0.6l-0.6,1h2.9
	C17,5.5,17,5.2,16.9,4.9z"/>
	<rect x="5.9" y="10.1" class="st1" width="12.3" height="9.6"/>
	<rect x="3.6" y="7.1" class="st1" width="17" height="1.6"/>
	<g>
	<path class="st1" d="M10.2,5.8l-0.6-1C9.5,4.5,9.2,4.2,8.9,4.1c-0.1,0-0.3-0.1-0.4-0.1c-0.2,0-0.4,0-0.5,0.1C7.3,4.5,7,5.2,7.3,5.8
		H10.2z"/>
		<path class="st1" d="M16.9,4.9c-0.1-0.3-0.4-0.6-0.7-0.7C16,4.1,15.6,4,15.3,4.1c-0.3,0.1-0.6,0.3-0.8,0.6l-0.6,1h2.9
		C17,5.5,17,5.2,16.9,4.9z"/>
		<rect x="5.9" y="10.1" class="st1" width="12.3" height="9.6"/>
		<path class="st2" d="M22.2,5.8h-3.3C19,5.3,19,4.8,18.8,4.3C18.5,3.6,18,3,17.2,2.6c-0.8-0.4-1.7-0.5-2.5-0.2
		c-0.8,0.3-1.5,0.8-1.9,1.5L12.1,5l-0.7-1.2C11,3.2,10.3,2.7,9.5,2.4C8.6,2.1,7.7,2.2,7,2.6C5.6,3.2,5,4.5,5.2,5.8H1.9v4.4h1.9
		l0.1,11.8h16.3l-0.1-11.8h2.1V5.8z M14.5,4.7c0.2-0.3,0.5-0.5,0.8-0.6C15.6,4,16,4.1,16.3,4.2c0.3,0.2,0.6,0.4,0.7,0.7
		C17,5.2,17,5.5,16.9,5.8h-2.9L14.5,4.7z M7.9,4.2c0.2-0.1,0.3-0.1,0.5-0.1c0.1,0,0.3,0,0.4,0.1c0.3,0.1,0.6,0.3,0.8,0.6l0.6,1H7.3
		C7,5.2,7.3,4.5,7.9,4.2z M18.2,19.7H5.9v-9.6h12.3V19.7z M20.6,8.8h-17V7.1h17V8.8z"/>
</g>
	<path class="st2" d="M15.6,16.5l-1.1-0.6l1-0.2c0.2,0,0.3-0.2,0.2-0.4c0-0.2-0.2-0.3-0.4-0.2l-1.6,0.4l-1.1-0.6l1.1-0.6l1.6,0.4h0.1
	c0.1,0,0.3-0.1,0.3-0.2c0-0.2-0.1-0.3-0.2-0.4l-1-0.2l1.1-0.6c0.2-0.1,0.2-0.3,0.1-0.4c-0.1-0.1-0.3-0.2-0.4-0.1l-1.1,0.6l0.3-0.9
	c0-0.2-0.1-0.3-0.2-0.4c-0.2,0-0.4,0.1-0.4,0.2l-0.4,1.5l-1.1,0.6v-1.2l1.2-1.1c0.1-0.1,0.1-0.3,0-0.4c-0.1-0.1-0.3-0.1-0.5,0
	l-0.7,0.7v-1.2c0-0.2-0.1-0.3-0.3-0.3s-0.3,0.1-0.3,0.3v1.2L11,11.6c-0.1-0.1-0.3-0.1-0.5,0c-0.1,0.1-0.1,0.3,0,0.4l1.2,1.1v1.2
	l-1.1-0.6l-0.4-1.5c0-0.2-0.2-0.3-0.4-0.2c-0.2,0-0.3,0.2-0.2,0.4l0.3,0.9l-1.1-0.6c-0.2-0.1-0.4,0-0.4,0.1c-0.1,0.1,0,0.3,0.1,0.4
	l1.1,0.6l-1,0.2c-0.2,0-0.3,0.2-0.2,0.4c0,0.1,0.2,0.2,0.3,0.2h0.1l1.6-0.4l1.1,0.6l-1.1,0.6L8.8,15c-0.2,0-0.4,0.1-0.4,0.2
	c0,0.2,0.1,0.3,0.2,0.4l1,0.2l-1.1,0.6c-0.2,0.1-0.2,0.3-0.1,0.4C8.5,16.9,8.6,17,8.7,17s0.1,0,0.2,0l1-0.6l-0.3,1
	c0,0.2,0.1,0.3,0.2,0.4h0.1c0.1,0,0.3-0.1,0.3-0.2l0.4-1.5l1.1-0.6v1.2l-1.2,1.1c-0.1,0.1-0.1,0.3,0,0.4s0.3,0.1,0.5,0l0.7-0.7v1.2
	c0,0.2,0.1,0.3,0.3,0.3s0.3-0.1,0.3-0.3v-1.2l0.7,0.7c0.1,0.1,0.1,0.1,0.2,0.1c0.1,0,0.2,0,0.2-0.1c0.1-0.1,0.1-0.3,0-0.4l-1.2-1.1
	v-1.3l1.1,0.6l0.4,1.5c0,0.1,0.2,0.2,0.3,0.2h0.1c0.2,0,0.3-0.2,0.2-0.4l0-0.9l1.1,0.6c0.1,0,0.1,0,0.2,0c0.1,0,0.2-0.1,0.3-0.2
	C15.9,16.8,15.8,16.6,15.6,16.5z"/>
</svg>
